assets/images/icons/src/thumb-tack.svg

<?xml version="1.0" encoding="utf-8"?>
<!-- Generated by IcoMoon.io -->
<!DOCTYPE svg PUBLIC "-//W3C//DTD SVG 1.1//EN" "http://www.w3.org/Graphics/SVG/1.1/DTD/svg11.dtd">
<svg version="1.1" xmlns="http://www.w3.org/2000/svg" xmlns:xlink="http://www.w3.org/1999/xlink" width="9" height="14" viewBox="0 0 9 14">
<path fill="#444444" d="M3.75 6.75v-3.5q0-0.109-0.070-0.18t-0.18-0.070-0.18 0.070-0.070 0.18v3.5q0 0.109 0.070 0.18t0.18 0.070 0.18-0.070 0.070-0.18zM9 9.5q0 0.203-0.148 0.352t-0.352 0.148h-3.352l-0.398 3.773q-0.016 0.094-0.082 0.16t-0.16 0.066h-0.008q-0.211 0-0.25-0.211l-0.594-3.789h-3.156q-0.203 0-0.352-0.148t-0.148-0.352q0-0.961 0.613-1.73t1.387-0.77v-4q-0.406 0-0.703-0.297t-0.297-0.703 0.297-0.703 0.703-0.297h5q0.406 0 0.703 0.297t0.297 0.703-0.297 0.703-0.703 0.297v4q0.773 0 1.387 0.77t0.613 1.73z"></path>
</svg>

<svg xmlns="http://www.w3.org/2000/svg" width="9" height="14" viewBox="0 0 9 14"><path fill="#444" d="M3.75 6.75v-3.5q0-.109-.07-.18T3.5 3t-.18.07-.07.18v3.5q0 .109.07.18T3.5 7t.18-.07.07-.18zM9 9.5q0 .203-.148.352T8.5 10H5.148l-.398 3.773q-.016.094-.082.16t-.16.066H4.5q-.211 0-.25-.211l-.594-3.789H.5q-.203 0-.352-.148T0 9.499q0-.961.613-1.73T2 6.999v-4q-.406 0-.703-.297T1 1.999t.297-.703T2 .999h5q.406 0 .703.297T8 1.999t-.297.703T7 2.999v4q.773 0 1.387.77T9 9.499z"/></svg>
